X:33
T:Farneth House
% Called Forneth House in Petrie's First Collection
C:Robert Petrie
S:Petrie's Third Collection of Strathspey Reels and Country Dances &c.
Z:Steve Wyrick <sjwyrick'at'gmail'dot'com>, 7/30/05
N:Petrie's Third Collection, page 14
L:1/8
M:C
R:Strathspey
K:D
"^Slow"
D|F<AA>B A<FA>B|d/c/d/e/ Tf>e d<BB>d|F<AA>B A<Fd>B|(B/A/)(G/F/) (A/G/)(F/E/) D2D:|f|
a>ba>f d<Ad>f|e>f g/f/e/d/ B2 Bf|a>ba>f d<Ad<f|e>f a/g/f/e/ d2 (d/e/f/g/)
a>ba<f d<Ad<f|(e/f/e/f/) (g/f/e/d/) B2 (B/c/d/B/)|A2 (B/A/G/F/) A>dA>F|TE>DE<F D2D|]
